icons/breezeDark/actions/16/zoom-fit-best.svg

<svg height="16" viewBox="0 0 16 16" width="16" xmlns="http://www.w3.org/2000/svg"><path d="m2 2v1 3h1v-3h3v-1h-3zm6 0-2 2h4zm2 0v1h3v3h1v-3-1h-1zm-5 3v6h6v-6zm1 1h4v4h-4zm-2 0-2 2 2 2zm8 0v4l2-2zm-10 4v3 1h4v-1h-3v-3zm11 0v3h-3v1h4v-1-3zm-7 2 2 2 2-2z" fill="#c0c0c0"/></svg>

<?xml version="1.0" encoding="UTF-8" standalone="no"?>
<svg
   xmlns:dc="http://purl.org/dc/elements/1.1/"
   xmlns:cc="http://creativecommons.org/ns#"
   xmlns:rdf="http://www.w3.org/1999/02/22-rdf-syntax-ns#"
   xmlns:svg="http://www.w3.org/2000/svg"
   xmlns="http://www.w3.org/2000/svg"
   xmlns:sodipodi="http://sodipodi.sourceforge.net/DTD/sodipodi-0.dtd"
   xmlns:inkscape="http://www.inkscape.org/namespaces/inkscape"
   inkscape:version="1.0beta1 (fe3e306, 2019-09-17)"
   height="16"
   width="16"
   sodipodi:docname="zoom-fit-best.svg"
   id="svg6"
   version="1.1"
   viewBox="0 0 16 16">
  <metadata
     id="metadata10">
    <rdf:RDF>
      <cc:Work
         rdf:about="">
        <dc:format>image/svg+xml</dc:format>
        <dc:type
           rdf:resource="http://purl.org/dc/dcmitype/StillImage" />
        <dc:title></dc:title>
      </cc:Work>
    </rdf:RDF>
  </metadata>
  <sodipodi:namedview
     inkscape:current-layer="svg6"
     inkscape:window-maximized="0"
     inkscape:window-y="0"
     inkscape:window-x="814"
     inkscape:cy="13.476992"
     inkscape:cx="7.4250121"
     inkscape:zoom="60.682618"
     showgrid="true"
     id="namedview8"
     inkscape:window-height="1042"
     inkscape:window-width="1090"
     inkscape:pageshadow="2"
     inkscape:pageopacity="0"
     guidetolerance="10"
     gridtolerance="10"
     objecttolerance="10"
     borderopacity="1"
     inkscape:document-rotation="0"
     bordercolor="#666666"
     pagecolor="#ffffff">
    <inkscape:grid
       id="grid835"
       type="xygrid" />
  </sodipodi:namedview>
  <defs
     id="defs3051">
    <style
       id="current-color-scheme"
       type="text/css">
      .ColorScheme-Text {
        color:#c0c0c0;
      }
      </style>
  </defs>
  <path
     sodipodi:nodetypes="cccccccccccccccccccccccccccccccccccccccccccccccccccccccccccc"
     inkscape:connector-curvature="0"
     id="path4"
     class="ColorScheme-Text"
     d="M 2,2 V 3 6 H 3 V 3 H 6 V 2 H 3 Z M 8,2 6,4 h 4 z m 2,0 v 1 h 3 v 3 h 1 V 3 2 H 13 Z M 5,5 v 6 h 6 V 5 Z m 1,1 h 4 v 4 H 6 Z M 4,6 2,8 4,10 Z m 8,0 v 4 L 14,8 Z M 2,10 v 3 1 H 6 V 13 H 3 v -3 z m 11,0 v 3 h -3 v 1 h 4 v -1 -3 z m -7,2 2,2 2,-2 z"
     style="fill:currentColor;fill-opacity:1;stroke:none" />
</svg>
